public/cards/8C.svg

<svg xmlns="http://www.w3.org/2000/svg" xmlns:xlink="http://www.w3.org/1999/xlink" class="card" height="336" preserveAspectRatio="none" viewBox="-120 -168 240 336" width="240">
    <symbol id="b" viewBox="-600 -600 1200 1200" preserveAspectRatio="xMinYMid">
        <path d="M30 150c5 235 55 250 100 350h-260c45-100 95-115 100-350a10 10 0 0 0-20 0 210 210 0 1 1-74-201 10 10 0 0 0 14-14 230 230 0 1 1 220 0 10 10 0 0 0 14 14 210 210 0 1 1-74 201 10 10 0 0 0-20 0z"/>
    </symbol>
    <symbol id="a" viewBox="-500 -500 1000 1000" preserveAspectRatio="xMinYMid">
        <path d="M-1-50a205 205 0 1 1 2 0h-2a255 255 0 1 0 2 0z" stroke="#000" stroke-width="80" stroke-linecap="square" stroke-miterlimit="1.5" fill="none"/>
    </symbol>
    <rect width="239" height="335" x="-119.5" y="-167.5" rx="12" ry="12" fill="#feffff"/>
    <use xlink:href="#a" height="32" x="-114.4" y="-156"/>
    <use xlink:href="#b" height="26.769" x="-111.784" y="-119"/>
    <use xlink:href="#b" height="70" x="-87.501" y="-135.588"/>
    <use xlink:href="#b" height="70" x="17.501" y="-135.588"/>
    <use xlink:href="#b" height="70" x="-35" y="-85.294"/>
    <use xlink:href="#b" height="70" x="-87.501" y="-35"/>
    <use xlink:href="#b" height="70" x="17.501" y="-35"/>
    <g transform="rotate(180)">
        <use xlink:href="#a" height="32" x="-114.4" y="-156"/>
        <use xlink:href="#b" height="26.769" x="-111.784" y="-119"/>
        <use xlink:href="#b" height="70" x="-87.501" y="-135.588"/>
        <use xlink:href="#b" height="70" x="17.501" y="-135.588"/>
        <use xlink:href="#b" height="70" x="-35" y="-85.294"/>
    </g>
</svg>

<?xml version="1.0" encoding="UTF-8" standalone="no"?>
<svg xmlns="http://www.w3.org/2000/svg" xmlns:xlink="http://www.w3.org/1999/xlink" class="card" face="8C" height="3.5in" preserveAspectRatio="none" viewBox="-120 -168 240 336" width="2.5in"><symbol id="SC8" viewBox="-600 -600 1200 1200" preserveAspectRatio="xMinYMid"><path d="M30 150C35 385 85 400 130 500L-130 500C-85 400 -35 385 -30 150A10 10 0 0 0 -50 150A210 210 0 1 1 -124 -51A10 10 0 0 0 -110 -65A230 230 0 1 1 110 -65A10 10 0 0 0 124 -51A210 210 0 1 1 50 150A10 10 0 0 0 30 150Z" fill="black"></path></symbol><symbol id="VC8" viewBox="-500 -500 1000 1000" preserveAspectRatio="xMinYMid"><path d="M-1 -50A205 205 0 1 1 1 -50L-1 -50A255 255 0 1 0 1 -50Z" stroke="black" stroke-width="80" stroke-linecap="square" stroke-miterlimit="1.5" fill="none"></path></symbol><rect width="239" height="335" x="-119.5" y="-167.5" rx="12" ry="12" fill="#feffff"></rect><use xlink:href="#VC8" height="32" x="-114.4" y="-156"></use><use xlink:href="#SC8" height="26.769" x="-111.784" y="-119"></use><use xlink:href="#SC8" height="70" x="-87.501" y="-135.588"></use><use xlink:href="#SC8" height="70" x="17.501" y="-135.588"></use><use xlink:href="#SC8" height="70" x="-35" y="-85.294"></use><use xlink:href="#SC8" height="70" x="-87.501" y="-35"></use><use xlink:href="#SC8" height="70" x="17.501" y="-35"></use><g transform="rotate(180)"><use xlink:href="#VC8" height="32" x="-114.4" y="-156"></use><use xlink:href="#SC8" height="26.769" x="-111.784" y="-119"></use><use xlink:href="#SC8" height="70" x="-87.501" y="-135.588"></use><use xlink:href="#SC8" height="70" x="17.501" y="-135.588"></use><use xlink:href="#SC8" height="70" x="-35" y="-85.294"></use></g></svg>
